X: 1
T: Festival, The
M: 4/4
L: 1/8
R: reel
K: Ddor
AD D2 EDCD | CDED EDCD | GEFD EDCA, | FDEC D2 AB |
AD D2 EDCD | CDED EDCD | GEFD EDCA, |1FDEC D2 AB :|2FDEC D4 ||
|: Addc d2 cd | edcA dcAG | c2 GF ECEF | cGED CDEG |
Addc d2 cd | edcA dcAG | cAGF ECEF |AGFE D4:|
